svg/furkot/simpleicon/on-map.svg

<svg viewBox="0 0 512 512" xmlns="http://www.w3.org/2000/svg"><path d="m0 32.014 112.048 64.028v384.168l-112.048-64.027zm400.179 448.194 112.044-64.025v-384.169l-112.044 64.028zm-256.117 0 96.043-64.025v-384.169l-96.043 64.028zm128.058-64.025 96.041 64.025v-384.166l-96.041-64.028z"/></svg>

<svg xmlns="http://www.w3.org/2000/svg" viewBox="0 0 512 512"><path d="M0 32.014L112.048 96.042V480.21L0 416.183V32.014ZM400.179 480.208L512.223 416.183V32.014L400.179 96.042V480.208ZM144.062 480.208L240.105 416.183V32.014L144.062 96.042V480.208ZM272.12 416.183L368.161 480.208V96.042L272.12 32.014V416.183Z"/></svg>
